X: 1
T: Christ Child's Lullaby
T: Taladh Chriosta
C:
R: waltz
B: Ceol na Fidhle v.2
S: handwritten page in Concord Slow Scottish Session collection
Z: 2015 John Chambers <jc:trillian.mit.edu>
Z: 2015 John Chambers <jc:trillian.mit.edu>
M: 3/4
L: 1/4
K: Amix
A |\
"A"(A2B) | (c2d) | "A"(e2d) | A2A |\
"A"(c2A) | "G"(B2e) | "Em"(d2B) | "G"G2 ||
A |\
"A"(A2B) | (c2d) | "A"(e2d) | A2A |\
"A"(A2E) | "Em"(G2A) | "G"(B2A) | "A"A2 |]
